src/SVG/disco_canaima.svg

<?xml version="1.0" encoding="UTF-8" standalone="no"?>
<!-- Generator: Adobe Illustrator 15.0.0, SVG Export Plug-In . SVG Version: 6.00 Build 0)  -->

<svg
   xmlns:dc="http://purl.org/dc/elements/1.1/"
   xmlns:cc="http://creativecommons.org/ns#"
   xmlns:rdf="http://www.w3.org/1999/02/22-rdf-syntax-ns#"
   xmlns:svg="http://www.w3.org/2000/svg"
   xmlns="http://www.w3.org/2000/svg"
   xmlns:sodipodi="http://sodipodi.sourceforge.net/DTD/sodipodi-0.dtd"
   xmlns:inkscape="http://www.inkscape.org/namespaces/inkscape"
   version="1.1"
   id="Layer_1"
   x="0px"
   y="0px"
   width="251.597"
   height="253.89799"
   viewBox="0 0 251.597 253.89799"
   enable-background="new 0 0 612 792"
   xml:space="preserve"
   inkscape:version="0.48.3.1 r9886"
   sodipodi:docname="disco_canaima.svg"><metadata
   id="metadata3069"><rdf:RDF><cc:Work
       rdf:about=""><dc:format>image/svg+xml</dc:format><dc:type
         rdf:resource="http://purl.org/dc/dcmitype/StillImage" /></cc:Work></rdf:RDF></metadata><defs
   id="defs3067" /><sodipodi:namedview
   pagecolor="#ffffff"
   bordercolor="#666666"
   borderopacity="1"
   objecttolerance="10"
   gridtolerance="10"
   guidetolerance="10"
   inkscape:pageopacity="0"
   inkscape:pageshadow="2"
   inkscape:window-width="640"
   inkscape:window-height="480"
   id="namedview3065"
   showgrid="false"
   fit-margin-top="0"
   fit-margin-left="0"
   fit-margin-right="0"
   fit-margin-bottom="0"
   inkscape:zoom="0.2979798"
   inkscape:cx="125.798"
   inkscape:cy="126.949"
   inkscape:window-x="0"
   inkscape:window-y="27"
   inkscape:window-maximized="0"
   inkscape:current-layer="Layer_1" />
<g
   id="g3059"
   transform="translate(-180.202,-269.051)">
	<rect
   x="242.17799"
   y="385.56299"
   width="126.734"
   height="22.870001"
   id="rect3061"
   style="fill:#6d8d24" />
	<path
   d="M 180.202,269.051 V 522.949 H 431.799 V 269.051 H 180.202 z m 219.486,29.845 -39.268,24.487 -46.391,-28.934 h 85.658 v 4.447 z m -187.368,33.585 38.357,23.937 54.875,-34.242 54.875,34.242 38.477,-24.014 V 462.73 L 360.427,440.388 305.552,472.259 250.677,440.388 212.32,462.66 V 332.481 z m 0,-38.032 h 84.747 l -46.39,28.934 -38.357,-23.923 v -5.011 z m 0,200.371 38.357,-22.271 43.059,25.01 H 212.32 v -2.739 z m 105.041,2.739 43.059,-25.01 39.268,22.785 v 2.225 h -82.327 z"
   id="path3063"
   inkscape:connector-curvature="0"
   style="fill:#6d8d24" />
</g>
</svg>

<?xml version="1.0" encoding="utf-8"?>
<!-- Generator: Adobe Illustrator 15.0.0, SVG Export Plug-In . SVG Version: 6.00 Build 0)  -->
<!DOCTYPE svg PUBLIC "-//W3C//DTD SVG 1.1//EN" "http://www.w3.org/Graphics/SVG/1.1/DTD/svg11.dtd">
<svg version="1.1" id="Layer_1" xmlns="http://www.w3.org/2000/svg" xmlns:xlink="http://www.w3.org/1999/xlink" x="0px" y="0px"
	 width="612px" height="792px" viewBox="0 0 612 792" enable-background="new 0 0 612 792" xml:space="preserve">
<g>
	<rect x="242.178" y="385.563" fill="#6D8D24" width="126.734" height="22.87"/>
	<path fill="#6D8D24" d="M180.202,269.051v253.898h251.597V269.051H180.202z M399.688,298.896l-39.268,24.487l-46.391-28.934h85.658
		V298.896z M212.32,332.481l38.357,23.937l54.875-34.242l54.875,34.242l38.477-24.014V462.73l-38.477-22.342l-54.875,31.871
		l-54.875-31.871L212.32,462.66V332.481z M212.32,294.449h84.747l-46.39,28.934L212.32,299.46V294.449z M212.32,494.82
		l38.357-22.271l43.059,25.01H212.32V494.82z M317.361,497.559l43.059-25.01l39.268,22.785v2.225H317.361z"/>
</g>
</svg>
